icon.svg

<?xml version="1.0" encoding="UTF-8" standalone="no"?>
<!-- Uploaded to: SVG Repo, www.svgrepo.com, Transformed by: SVG Repo Mixer Tools -->

<svg
   width="128"
   height="128"
   viewBox="0 0 24 24"
   fill="none"
   version="1.1"
   id="svg2"
   xmlns="http://www.w3.org/2000/svg"
   xmlns:svg="http://www.w3.org/2000/svg">
  <defs
     id="defs2" />
  <g
     id="SVGRepo_iconCarrier"
     transform="matrix(1.1924832,0,0,1.1924832,-2.3576951,-2.3095561)">
    <path
       d="M 20,10 V 7 C 20,5.89543 19.1046,5 18,5 H 6 C 4.89543,5 4,5.89543 4,7 v 3 m 16,0 H 4 m 16,0 v 1.75 M 4,10 v 9 c 0,1.1046 0.89543,2 2,2 h 6 M 8,3 v 4 m 8,-4 v 4"
       stroke="#da53e1"
       stroke-width="2"
       stroke-linecap="round"
       id="path1" />
    <path
       d="m 18,15 v 6 m 0,0 -2.5,-2.5 M 18,21 20.5,18.5"
       stroke="#da53e1"
       stroke-width="2"
       stroke-linecap="round"
       stroke-linejoin="round"
       id="path2" />
  </g>
</svg>

<!DOCTYPE svg PUBLIC "-//W3C//DTD SVG 1.1//EN" "http://www.w3.org/Graphics/SVG/1.1/DTD/svg11.dtd">
<!-- Uploaded to: SVG Repo, www.svgrepo.com, Transformed by: SVG Repo Mixer Tools -->
<svg width="256px" height="256px" viewBox="0 0 24.00 24.00" fill="none" xmlns="http://www.w3.org/2000/svg" stroke="#ffffff">
<g id="SVGRepo_bgCarrier" stroke-width="0"/>
<g id="SVGRepo_tracerCarrier" stroke-linecap="round" stroke-linejoin="round" stroke="#ffffff" stroke-width="0.192"/>
<g id="SVGRepo_iconCarrier"> <path d="M20 10V7C20 5.89543 19.1046 5 18 5H6C4.89543 5 4 5.89543 4 7V10M20 10H4M20 10V11.75M4 10V19C4 20.1046 4.89543 21 6 21H12M8 3V7M16 3V7" stroke="#b942ca" stroke-width="2.4" stroke-linecap="round"/> <path d="M18 15V21M18 21L15.5 18.5M18 21L20.5 18.5" stroke="#b942ca" stroke-width="2.4" stroke-linecap="round" stroke-linejoin="round"/> </g>
</svg>
